src/assets/buildinginpublic/logo-twitter.svg

<svg fill="none" height="20" viewBox="0 0 20 20" width="20" xmlns="http://www.w3.org/2000/svg" xmlns:xlink="http://www.w3.org/1999/xlink"><clipPath id="a"><path d="m0 0h20v20h-20z"/></clipPath><g clip-path="url(#a)"><path d="m20 3.92406c-.7359.32633-1.5267.54688-2.3567.6461.8472-.50782 1.4978-1.31196 1.8041-2.27008-.8054.47796-1.6866.81471-2.6055.9957-.7485-.79742-1.8149-1.29578-2.9951-1.29578-2.2661 0-4.10336 1.83719-4.10336 4.10313 0 .32164.03633.63476.10625.93515-3.41016-.17117-6.4336-1.80469-8.45742-4.28719-.35313.60602-.555473 1.31094-.555473 2.06282 0 1.42359.724453 2.67945 1.825393 3.41531-.6516-.02041-1.28887-.1964-1.858596-.51328-.000235.01719-.000235.03437-.000235.05164 0 1.98805 1.414371 3.64652 3.291411 4.02342-.60423.1643-1.23803.1884-1.85297.0703.52211 1.6302 2.0375 2.8164 3.83297 2.8496-1.4043 1.1005-3.1736 1.7565-5.095942 1.7565-.33125 0-.657812-.0194-.978828-.0573 1.81586 1.1642 3.97266 1.8435 6.28984 1.8435 7.54746 0 11.67456-6.2524 11.67456-11.67462 0-.17796-.0039-.35492-.0119-.53085.8033-.58072 1.4967-1.29999 2.0475-2.12407" fill="#55acee"/></g></svg>

<svg width="20" height="20" viewBox="0 0 20 20" fill="none" xmlns="http://www.w3.org/2000/svg">
<g clip-path="url(#clip0_816:775)">
<path d="M20 3.92406C19.2641 4.25039 18.4733 4.47094 17.6433 4.57016C18.4905 4.06234 19.1411 3.2582 19.4474 2.30008C18.642 2.77804 17.7608 3.11479 16.8419 3.29578C16.0934 2.49836 15.027 2 13.8468 2C11.5807 2 9.74344 3.83719 9.74344 6.10313C9.74344 6.42477 9.77977 6.73789 9.84969 7.03828C6.43953 6.86711 3.41609 5.23359 1.39227 2.75109C1.03914 3.35711 0.836797 4.06203 0.836797 4.81391C0.836797 6.2375 1.56125 7.49336 2.66219 8.22922C2.01059 8.20881 1.37332 8.03282 0.803594 7.71594C0.803359 7.73313 0.803359 7.75031 0.803359 7.76758C0.803359 9.75563 2.21773 11.4141 4.09477 11.791C3.49054 11.9553 2.85674 11.9794 2.2418 11.8613C2.76391 13.4915 4.2793 14.6777 6.07477 14.7109C4.67047 15.8114 2.90117 16.4674 0.978828 16.4674C0.647578 16.4674 0.321016 16.448 0 16.4101C1.81586 17.5743 3.97266 18.2536 6.28984 18.2536C13.8373 18.2536 17.9644 12.0012 17.9644 6.57898C17.9644 6.40102 17.9605 6.22406 17.9525 6.04813C18.7558 5.46741 19.4492 4.74814 20 3.92406" fill="#55ACEE"/>
</g>
<defs>
<clipPath id="clip0_816:775">
<rect width="20" height="20" fill="white"/>
</clipPath>
</defs>
</svg>
